app/assets/images/svg/scanner.svg

<?xml version="1.0" encoding="UTF-8" standalone="no"?>
<svg
   xmlns:dc="http://purl.org/dc/elements/1.1/"
   xmlns:cc="http://creativecommons.org/ns#"
   xmlns:rdf="http://www.w3.org/1999/02/22-rdf-syntax-ns#"
   xmlns:svg="http://www.w3.org/2000/svg"
   xmlns="http://www.w3.org/2000/svg"
   version="1.1"
   id="svg2"
   viewBox="0 0 48 48"
   height="48"
   width="48">
  <defs
     id="defs4" />
  <metadata
     id="metadata7">
    <rdf:RDF>
      <cc:Work
         rdf:about="">
        <dc:format>image/svg+xml</dc:format>
        <dc:type
           rdf:resource="http://purl.org/dc/dcmitype/StillImage" />
        <dc:title></dc:title>
      </cc:Work>
    </rdf:RDF>
  </metadata>
  <g
     transform="translate(0,-1004.3622)"
     id="layer1">
    <g
       transform="matrix(0.11025427,0,0,0.11025427,-15.658371,994.75189)"
       id="g4296">
      <g
         transform="matrix(9.0699435,0,0,9.0699435,-2960.9951,-1416.9204)"
         id="g4964" />
      <g
         transform="matrix(9.0699435,0,0,9.0699435,-2960.9951,-1416.9204)"
         id="g4966" />
      <g
         transform="matrix(9.0699435,0,0,9.0699435,-2960.9951,-1416.9204)"
         id="g4968" />
      <g
         transform="matrix(9.0699435,0,0,9.0699435,-2960.9951,-1416.9204)"
         id="g4970" />
      <g
         transform="matrix(9.0699435,0,0,9.0699435,-2960.9951,-1416.9204)"
         id="g4972" />
      <g
         transform="matrix(9.0699435,0,0,9.0699435,-2960.9951,-1416.9204)"
         id="g4974" />
      <g
         transform="matrix(9.0699435,0,0,9.0699435,-2960.9951,-1416.9204)"
         id="g4976" />
      <g
         transform="matrix(9.0699435,0,0,9.0699435,-2960.9951,-1416.9204)"
         id="g4978" />
      <g
         transform="matrix(9.0699435,0,0,9.0699435,-2960.9951,-1416.9204)"
         id="g4980" />
      <g
         transform="matrix(9.0699435,0,0,9.0699435,-2960.9951,-1416.9204)"
         id="g4982" />
      <g
         transform="matrix(9.0699435,0,0,9.0699435,-2960.9951,-1416.9204)"
         id="g4984" />
      <g
         transform="matrix(9.0699435,0,0,9.0699435,-2960.9951,-1416.9204)"
         id="g4986" />
      <g
         transform="matrix(9.0699435,0,0,9.0699435,-2960.9951,-1416.9204)"
         id="g4988" />
      <g
         transform="matrix(9.0699435,0,0,9.0699435,-2960.9951,-1416.9204)"
         id="g4990" />
      <g
         transform="matrix(9.0699435,0,0,9.0699435,-2960.9951,-1416.9204)"
         id="g4992" />
      <g
         style="fill:#eeeeee;fill-opacity:1;stroke:none"
         transform="matrix(0.70598159,0,0,0.70598159,238.14348,179.05672)"
         id="g7250">
        <g
           style="fill:#eeeeee;fill-opacity:1;stroke:none"
           id="g7210">
          <path
             style="fill:#eeeeee;fill-opacity:1;stroke:none"
             d="m 347.406,168.706 -344.603,0 C 1.256,168.706 0,169.967 0,171.504 l 0,55.853 c 0,1.55 1.256,2.802 2.803,2.802 l 19.611,0 0,55.105 -11.207,0 C 5.021,285.264 0,290.279 0,296.469 l 0,24.284 c 0,6.188 5.021,11.207 11.207,11.207 l 327.793,0 c 6.186,0 11.209,-5.019 11.209,-11.207 l 0,-24.284 c 0,-6.189 -5.023,-11.205 -11.209,-11.205 l -19.611,0 0,-55.105 28.017,0 c 1.544,0 2.804,-1.252 2.804,-2.802 l 0,-55.853 c -10e-4,-1.537 -1.26,-2.798 -2.804,-2.798 z m -214.327,18.727 18.212,0 0,18.212 -18.212,0 0,-18.212 z m -50.429,0 18.21,0 0,18.212 -18.21,0 0,-18.212 z m -46.929,0 18.211,0 0,18.212 -18.211,0 0,-18.212 z M 344.999,147.704 16.362,33.216 21.573,18.255 c 0,0 156.115,27.385 328.642,114.499 l -5.216,14.95 z"
             id="path7212" />
        </g>
        <g
           style="fill:#eeeeee;fill-opacity:1;stroke:none"
           id="g7214" />
        <g
           style="fill:#eeeeee;fill-opacity:1;stroke:none"
           id="g7216" />
        <g
           style="fill:#eeeeee;fill-opacity:1;stroke:none"
           id="g7218" />
        <g
           style="fill:#eeeeee;fill-opacity:1;stroke:none"
           id="g7220" />
        <g
           style="fill:#eeeeee;fill-opacity:1;stroke:none"
           id="g7222" />
        <g
           style="fill:#eeeeee;fill-opacity:1;stroke:none"
           id="g7224" />
        <g
           style="fill:#eeeeee;fill-opacity:1;stroke:none"
           id="g7226" />
        <g
           style="fill:#eeeeee;fill-opacity:1;stroke:none"
           id="g7228" />
        <g
           style="fill:#eeeeee;fill-opacity:1;stroke:none"
           id="g7230" />
        <g
           style="fill:#eeeeee;fill-opacity:1;stroke:none"
           id="g7232" />
        <g
           style="fill:#eeeeee;fill-opacity:1;stroke:none"
           id="g7234" />
        <g
           style="fill:#eeeeee;fill-opacity:1;stroke:none"
           id="g7236" />
        <g
           style="fill:#eeeeee;fill-opacity:1;stroke:none"
           id="g7238" />
        <g
           style="fill:#eeeeee;fill-opacity:1;stroke:none"
           id="g7240" />
        <g
           style="fill:#eeeeee;fill-opacity:1;stroke:none"
           id="g7242" />
      </g>
    </g>
  </g>
</svg>

<?xml version="1.0" encoding="iso-8859-1"?>
<!-- Generator: Adobe Illustrator 16.0.0, SVG Export Plug-In . SVG Version: 6.00 Build 0)  -->
<!DOCTYPE svg PUBLIC "-//W3C//DTD SVG 1.1//EN" "http://www.w3.org/Graphics/SVG/1.1/DTD/svg11.dtd">
<svg version="1.1" id="Capa_1" xmlns="http://www.w3.org/2000/svg" xmlns:xlink="http://www.w3.org/1999/xlink" x="0px" y="0px"
	 width="350.215px" height="350.215px" viewBox="0 0 350.215 350.215" style="enable-background:new 0 0 350.215 350.215;"
	 xml:space="preserve">
<g>
	<path d="M347.406,168.706H2.803c-1.547,0-2.803,1.261-2.803,2.798v55.853c0,1.55,1.256,2.802,2.803,2.802h19.611v55.105H11.207
		C5.021,285.264,0,290.279,0,296.469v24.284c0,6.188,5.021,11.207,11.207,11.207H339c6.186,0,11.209-5.019,11.209-11.207v-24.284
		c0-6.189-5.023-11.205-11.209-11.205h-19.611v-55.105h28.017c1.544,0,2.804-1.252,2.804-2.802v-55.853
		C350.209,169.967,348.95,168.706,347.406,168.706z M133.079,187.433h18.212v18.212h-18.212V187.433z M82.65,187.433h18.21v18.212
		H82.65V187.433z M35.721,187.433h18.211v18.212H35.721V187.433z M344.999,147.704L16.362,33.216l5.211-14.961
		c0,0,156.115,27.385,328.642,114.499L344.999,147.704z"/>
</g>
<g>
</g>
<g>
</g>
<g>
</g>
<g>
</g>
<g>
</g>
<g>
</g>
<g>
</g>
<g>
</g>
<g>
</g>
<g>
</g>
<g>
</g>
<g>
</g>
<g>
</g>
<g>
</g>
<g>
</g>
</svg>
